icon/pk/install.svg

<svg viewBox="0 0 48 48" fill="none" xmlns="http://www.w3.org/2000/svg" height="1em" width="1em">
  <path d="M41.4004 11.551L36.3332 5H11.6666L6.58398 11.551" stroke="black" stroke-width="4" stroke-linecap="round" stroke-linejoin="round"/>
  <path d="M6 13C6 11.8954 6.89543 11 8 11H40C41.1046 11 42 11.8954 42 13V40C42 41.6569 40.6569 43 39 43H9C7.34315 43 6 41.6569 6 40V13Z" fill="#2F88FF" stroke="black" stroke-width="4" stroke-linejoin="round"/>
  <path d="M32 27L24 35L16 27" stroke="white" stroke-width="4" stroke-linecap="round" stroke-linejoin="round"/>
  <path d="M23.9917 19V35" stroke="white" stroke-width="4" stroke-linecap="round" stroke-linejoin="round"/>
</svg>

<svg width="48" height="48" fill="none" xmlns="http://www.w3.org/2000/svg"><path d="M41.4 11.551 36.333 5H11.667l-5.083 6.551" stroke="#000" stroke-width="4" stroke-linecap="round" stroke-linejoin="round"/><path d="M6 13a2 2 0 0 1 2-2h32a2 2 0 0 1 2 2v27a3 3 0 0 1-3 3H9a3 3 0 0 1-3-3V13Z" fill="#2F88FF" stroke="#000" stroke-width="4" stroke-linejoin="round"/><path d="m32 27-8 8-8-8M23.992 19v16" stroke="#fff" stroke-width="4" stroke-linecap="round" stroke-linejoin="round"/></svg>
